!!!OTL: Die Sittarder Schlacht.
!!!OTL-incipit: UND WOLLT IHR HOEREN EIN NEUES LIED
!!!ARE: Europa, Mitteleuropa, Deutschland
!!!SCT: Z1050A
!!!YEM: Copyright 1995, estate of Helmut Schaffrath.
**kern	**text
*ICvox	*
*M6/8	*
*k[]	*
*C:	*
!LO:TX:a:t=Vom Niederrhein.	!
{8g	Und
=1	=1
4cc	wollt
8cc	ihr
8dd	hö-
8dd	-ren
8ee	ein
=2	=2
8ffL	neu-
8eeJ	.
8dd	-es
4ee}	Lied,
{8g	und
=3	=3
4cc	was
8cc	vor
4dd	Sit-
8ee	-tard
=4	=4
8ffL	iſt
8eeJ	.
8dd	geſchieht,
4ee}	.
{8ee	da-
=5	=5
4ee	-von
8gg	will
4ff	ich
8ee	euch
=6	=6
4.ee	ſin-
4dd}	-gen
{8ee	Lob,
=7	=7
8ggL	Preis,
8ffJ	.
16eeL	hört
16ddJ	.
4cc	Gott
8dd	dem
=8	=8
4dd	Her-
8ee	-ren
4dd}	ʒu,
{8dd	es
=9	=9
8ddL	ſind
8eeJ	.
8a	gar
8ccL	neu-
8bJ	.
8g#	-e
=10	=10
4.b/	Din-
4a}	-ge!
==	==
!!!AGN: Romanze, Ballade
!! Modulation
!!!ONB: ESAC (Essen Associative Code) Database: ZUCCAL
!!!AMT: compound duple
!!!AIN: vox
!!!EED: Helmut Schaffrath
!!!EEV: 1.0
!!!GTL: II. Gau- Leuschen.
!!!URL-scan: https://www.digitale-sammlungen.de/de/view/bsb11160573?page=116
!!!ENC: Anna Maria Matuszewska
!!!EEV: 2025/03/02
*-	*-
